bundles/org.openhab.ui.iconset.classic/src/main/resources/icons/garagedoor-70.svg

<?xml version="1.0" encoding="UTF-8"?>
<svg enable-background="new 0 0 64 64" viewBox="0 0 64 64" xmlns="http://www.w3.org/2000/svg">
 <path d="m9.5 14.5h15v4h-15z" fill="#282828"/>
 <path d="m24 15v3h-14v-3h14m1-1h-16v5h16v-5z" fill="#3c3c3c"/>
 <path d="m24.5 14.5h15v4h-15z" fill="#282828"/>
 <path d="m39 15v3h-14v-3h14m1-1h-16v5h16v-5z" fill="#3c3c3c"/>
 <path d="m39.5 14.5h15v4h-15z" fill="#282828"/>
 <path d="m54 15v3h-14v-3h14m1-1h-16v5h16v-5z" fill="#3c3c3c"/>
 <path d="m9.5 18.5h15v11h-15z" fill="#282828"/>
 <path d="m24 19v10h-14v-10h14m1-1h-16v12h16v-12z" fill="#3c3c3c"/>
 <path d="m24.5 18.5h15v11h-15z" fill="#282828"/>
 <path d="m39 19v10h-14v-10h14m1-1h-16v12h16v-12z" fill="#3c3c3c"/>
 <path d="m39.5 18.5h15v11h-15z" fill="#282828"/>
 <path d="m54 19v10h-14v-10h14m1-1h-16v12h16v-12z" fill="#3c3c3c"/>
 <path d="m9.5 29.5h15v11h-15z" fill="#282828"/>
 <path d="m24 30v10h-14v-10h14m1-1h-16v12h16v-12z" fill="#3c3c3c"/>
 <path d="m24.5 29.5h15v11h-15z" fill="#282828"/>
 <path d="m39 30v10h-14v-10h14m1-1h-16v12h16v-12z" fill="#3c3c3c"/>
 <path d="m39.5 29.5h15v11h-15z" fill="#282828"/>
 <path d="m54 30v10h-14v-10h14m1-1h-16v12h16v-12z" fill="#3c3c3c"/>
 <path d="m55.5 53.5v-35h-47v35h-5v-40h57v40z" fill="#f0f0f0"/>
 <path d="m60 14v39h-4v-35h-48v35h-4v-39h56m1-1h-58v41h6v-35h46v35h6v-41z" fill="#c8c8c8"/>
</svg>

<svg viewBox="0 0 64 64" xmlns="http://www.w3.org/2000/svg"><path d="M9.5 14.5h15v4h-15z" fill="#282828"/><path d="M24 15v3H10v-3h14m1-1H9v5h16v-5z" fill="#3c3c3c"/><path d="M24.5 14.5h15v4h-15z" fill="#282828"/><path d="M39 15v3H25v-3h14m1-1H24v5h16v-5z" fill="#3c3c3c"/><path d="M39.5 14.5h15v4h-15z" fill="#282828"/><path d="M54 15v3H40v-3h14m1-1H39v5h16v-5z" fill="#3c3c3c"/><path d="M9.5 18.5h15v11h-15z" fill="#282828"/><path d="M24 19v10H10V19h14m1-1H9v12h16V18z" fill="#3c3c3c"/><path d="M24.5 18.5h15v11h-15z" fill="#282828"/><path d="M39 19v10H25V19h14m1-1H24v12h16V18z" fill="#3c3c3c"/><path d="M39.5 18.5h15v11h-15z" fill="#282828"/><path d="M54 19v10H40V19h14m1-1H39v12h16V18z" fill="#3c3c3c"/><path d="M9.5 29.5h15v11h-15z" fill="#282828"/><path d="M24 30v10H10V30h14m1-1H9v12h16V29z" fill="#3c3c3c"/><path d="M24.5 29.5h15v11h-15z" fill="#282828"/><path d="M39 30v10H25V30h14m1-1H24v12h16V29z" fill="#3c3c3c"/><path d="M39.5 29.5h15v11h-15z" fill="#282828"/><path d="M54 30v10H40V30h14m1-1H39v12h16V29z" fill="#3c3c3c"/><path d="M55.5 53.5v-35h-47v35h-5v-40h57v40z" fill="#f0f0f0"/><path d="M60 14v39h-4V18H8v35H4V14h56m1-1H3v41h6V19h46v35h6V13z" fill="#c8c8c8"/></svg>
